X:170
T:Jolly Clamdiggers
Z: id:dc-reel-157
M:C
L:1/8
K:D Major
A|d2FB AFEF|Dddc BABc|dFF2 AFF2|EDCE Dgfe|!
d2FB AFEF|Dddc BABc|dFF2 AFF2|EDCE D3|]!
A|defd egfd|A2cA eAcA|defd e2fg|abag fdec|!
defd egfd|A2cA eAcA|defg abag|fdec d3|]!

